fig/ceremony-cycle-pie.svg

<?xml version="1.0" encoding="UTF-8" standalone="no"?>
<!-- Do not edit this file with editors other than diagrams.net -->

<svg
   version="1.1"
   width="241px"
   height="241px"
   viewBox="-0.5 -0.5 241 241"
   content="&lt;mxfile host=&quot;app.diagrams.net&quot; modified=&quot;2022-08-01T09:54:29.952Z&quot; agent=&quot;5.0 (Windows NT 10.0; Win64; x64) AppleWebKit/537.36 (KHTML, like Gecko) Chrome/103.0.5060.134 Safari/537.36&quot; etag=&quot;lku_Z3mv1jVjfG4It5zA&quot; version=&quot;20.2.2&quot; type=&quot;device&quot;&gt;&lt;diagram id=&quot;1vbO9D7_DC-vp_bcWHD5&quot; name=&quot;Page-1&quot;&gt;3Zldd6M2EIZ/jS+bIyEk0GVCsrs97Z7mbC7avcQgY51iREGO7f76jkB843rrddZubhLrldDHPDMaCRYk2Ow/FmG+/qxikS4cFO8X5HHhONTl8NcIh1pwmFsLSSHjWsKd8CL/FlZEVt3KWJSDhlqpVMt8KEYqy0SkB1pYFGo3bLZS6XDUPEzERHiJwnSq/i5jva5Vn6JO/yRksm5GxsjWbMKmsRXKdRirXU8iTwsSFErp+tdmH4jU2K6xS/3chyO17cQKkelveaA8fPmcf3qW+uvrb/qX+OenD07xU2Pm1zDd2hXb2epDY4JXUWgJFvk1XIr0WZVSS5VB1VJprTYL8tA0uE9lYiq0ykFd600KBQw/Yem56WyzT4yT3C3DUkZ3uRSmToeFvs+SajR0x2EZDvIZZ+AqBDFoIbK4q0e+72GPY8Ko5zqYO3X3tWURFFYyTQOVqqKaPIlisfSX1TiF+lP0aggjnIBtHuKwXIvYTtWaA1Yk9kcNjVt84PZCbYQuDtCkeYBZo1qX921x1/mP41pt3fOdVgytzyZt1x1W+GHJ/gfK5NYgc99FEEOEYY+6lI8h+xhT7BLf55wi5nonGMdU+LE7x9h3loSxy2B10BArdqZcW/R9rq14ca7ujXEFbh4w5ZRxjxJvEry+h6iPMKMQv8T1ySmuofBX0RxXFvliuXq3XOmtcfWQSwmnDmMORKw34noC42olWDSLMfb4EqF3i5HNYGSpNhZSsChzaGlMwf7amnPAg8lLsGOZtXQSS8z/LyKRpRaFzJKmG5hV3VPdYuIkYE09gj5AkKlMjHhZKbReE4H1RTHjThsZx2aYh91aavGSh5EZcweeBFqhtllcpdSJb1yCNB2SdmZIz4Emb8XZO8G5pnNflmC676L3ZlQKpUO7gRB01E1gsr3gRYixILgQUjwKXnZlpP5Zocu5G82F7r3WotQ3j96j10BP2BC9i6+Lnp9Ovib5mbtlZ6AeqaGtj1lO7KX+o0quFGFb/mrLni0/7m0nVeHQKzxDGoDVGkd4nMYrjBMEZqS2prm6kpaZiCf33hExWLHaFpH4F1ORebI9cnSGXKMVIgXPex1OYw6nHeFZySr0GsdhR9JA00U9fftU/2I87sgZbT5o1BEchhKhJx1V3tUu+3yHw/iszcYAnttsgjSUm5vfa66SZUYHB37lJIOds8BHURXbE/AH8Hfz4kkIvc3NezLYIv7HJ8WRI0BuDS51V8DekYi/midc8cYXFtHkxje+uDucQ7SYdzXYRa6HT7AaZZ/+xZ1Vm9Y4L5m2eZPTjIuY/etyF4bbuxriuQPmxU4ZZ9n/W88F18r3pPmU0OR7RM7L94QOT5xOY/sfle/f9IT5PtmPNuz2vvj97MmF2EOx+5ZTN+8+iJGnfwA=&lt;/diagram&gt;&lt;/mxfile&gt;"
   id="svg70"
   sodipodi:docname="ceremony-cycle-pie.svg"
   inkscape:version="1.1.2 (0a00cf5339, 2022-02-04)"
   xmlns:inkscape="http://www.inkscape.org/namespaces/inkscape"
   xmlns:sodipodi="http://sodipodi.sourceforge.net/DTD/sodipodi-0.dtd"
   xmlns:xlink="http://www.w3.org/1999/xlink"
   xmlns="http://www.w3.org/2000/svg"
   xmlns:svg="http://www.w3.org/2000/svg"
   xmlns:xhtml="http://www.w3.org/1999/xhtml">
  <sodipodi:namedview
     id="namedview72"
     pagecolor="#ffffff"
     bordercolor="#000000"
     borderopacity="0.25"
     inkscape:pageshadow="2"
     inkscape:pageopacity="0.0"
     inkscape:pagecheckerboard="0"
     showgrid="false"
     inkscape:zoom="3.6224066"
     inkscape:cx="120.36197"
     inkscape:cy="120.5"
     inkscape:window-width="3370"
     inkscape:window-height="1369"
     inkscape:window-x="70"
     inkscape:window-y="34"
     inkscape:window-maximized="1"
     inkscape:current-layer="switch50" />
  <defs
     id="defs2">
    <rect
       x="29.291463"
       y="26.403722"
       width="21.8512"
       height="20.334304"
       id="rect8279" />
  </defs>
  <path
     d="M 120,120 63.53,14.12 c 37.83,-20.18 83.56,-18.64 119.95,4.05 z"
     fill="#cdeb8b"
     stroke="#36393d"
     stroke-miterlimit="10"
     stroke-dasharray="3, 3"
     pointer-events="all"
     id="path4" />
  <path
     d="m 120,120 -0.8,-80 c 35.26,-0.35 66.6,22.43 77.14,56.09 10.54,33.65 -2.19,70.24 -31.36,90.07 C 135.82,205.99 97.11,204.38 69.69,182.2 42.27,160.02 32.61,122.51 45.9,89.84 Z"
     fill="#d5e8d4"
     stroke="#82b366"
     stroke-miterlimit="10"
     pointer-events="all"
     id="path6" />
  <path
     d="M 120,120 45.94,89.74 c 3.74,-9.15 9.15,-17.53 15.94,-24.72 z"
     fill="#dae8fc"
     stroke="#6c8ebf"
     stroke-miterlimit="10"
     pointer-events="all"
     id="path8" />
  <path
     d="M 120,120 61.84,65.07 C 76.95,49.07 97.99,40 120,40 Z"
     fill="#ffe6cc"
     stroke="#d79b00"
     stroke-miterlimit="10"
     pointer-events="all"
     id="path10" />
  <rect
     x="90"
     y="140"
     width="60"
     height="30"
     fill="none"
     stroke="none"
     pointer-events="all"
     id="rect12" />
  <g
     transform="translate(-0.5,-0.5)"
     id="g18">
    <switch
       id="switch16">
      <foreignObject
         pointer-events="none"
         width="100%"
         height="100%"
         requiredFeatures="http://www.w3.org/TR/SVG11/feature#Extensibility"
         style="overflow: visible; text-align: left;">
        <xhtml:div
           style="display: flex; align-items: unsafe center; justify-content: unsafe center; width: 58px; height: 1px; padding-top: 155px; margin-left: 91px;">
          <xhtml:div
             data-drawio-colors="color: rgb(0, 0, 0); "
             style="box-sizing: border-box; font-size: 0px; text-align: center;">
            <xhtml:div
               style="display: inline-block; font-size: 12px; font-family: Helvetica; color: rgb(0, 0, 0); line-height: 1.2; pointer-events: all; white-space: normal; overflow-wrap: normal;">
              <xhtml:font
                 color="#336600">Registering</xhtml:font>
            </xhtml:div>
          </xhtml:div>
        </xhtml:div>
      </foreignObject>
      <text
         x="120"
         y="159"
         fill="#000000"
         font-family="Helvetica"
         font-size="12px"
         text-anchor="middle"
         id="text14">Registering</text>
    </switch>
  </g>
  <rect
     x="86.782036"
     y="27.272413"
     width="60"
     height="30"
     fill="none"
     stroke="none"
     transform="rotate(30)"
     pointer-events="all"
     id="rect20" />
  <g
     transform="rotate(30,80.683013,93.816987)"
     id="g26">
    <switch
       id="switch24">
      <foreignObject
         pointer-events="none"
         width="100%"
         height="100%"
         requiredFeatures="http://www.w3.org/TR/SVG11/feature#Extensibility"
         style="overflow: visible; text-align: left;">
        <xhtml:div
           style="display: flex; align-items: unsafe center; justify-content: unsafe center; width: 58px; height: 1px; padding-top: 95px; margin-left: 51px;">
          <xhtml:div
             data-drawio-colors="color: #0066CC; "
             style="box-sizing: border-box; font-size: 0px; text-align: center;">
            <xhtml:div
               style="display: inline-block; font-size: 12px; font-family: Helvetica; color: rgb(0, 102, 204); line-height: 1.2; pointer-events: all; white-space: normal; overflow-wrap: normal;">
              <xhtml:font>Assigning</xhtml:font>
            </xhtml:div>
          </xhtml:div>
        </xhtml:div>
      </foreignObject>
      <text
         x="80"
         y="99"
         fill="#0066cc"
         font-family="Helvetica"
         font-size="12px"
         text-anchor="middle"
         id="text22">Assigning</text>
    </switch>
  </g>
  <rect
     x="70.845184"
     y="-97.717888"
     width="60"
     height="30"
     fill="none"
     stroke="none"
     transform="rotate(75)"
     pointer-events="all"
     id="rect28" />
  <g
     transform="rotate(75,106.07581,75.424194)"
     id="g34">
    <switch
       id="switch32">
      <foreignObject
         pointer-events="none"
         width="100%"
         height="100%"
         requiredFeatures="http://www.w3.org/TR/SVG11/feature#Extensibility"
         style="overflow: visible; text-align: left;">
        <xhtml:div
           style="display: flex; align-items: unsafe center; justify-content: unsafe center; width: 58px; height: 1px; padding-top: 76px; margin-left: 77px;">
          <xhtml:div
             data-drawio-colors="color: #0066CC; "
             style="box-sizing: border-box; font-size: 0px; text-align: center;">
            <xhtml:div
               style="display: inline-block; font-size: 12px; font-family: Helvetica; color: rgb(0, 102, 204); line-height: 1.2; pointer-events: all; white-space: normal; overflow-wrap: normal;">
              <xhtml:font
                 color="#994c00">Attesting</xhtml:font>
            </xhtml:div>
          </xhtml:div>
        </xhtml:div>
      </foreignObject>
      <text
         x="106"
         y="80"
         fill="#0066cc"
         font-family="Helvetica"
         font-size="12px"
         text-anchor="middle"
         id="text30">Attesting</text>
    </switch>
  </g>
  <path
     d="M 120.16,121.12 60,20"
     fill="none"
     stroke="#cc0066"
     stroke-width="3"
     stroke-miterlimit="10"
     pointer-events="stroke"
     id="path36" />
  <rect
     x="90"
     y="10"
     width="60"
     height="30"
     fill="none"
     stroke="none"
     pointer-events="all"
     id="rect38" />
  <g
     transform="translate(-0.5,-0.5)"
     id="g44">
    <switch
       id="switch42">
      <foreignObject
         pointer-events="none"
         width="100%"
         height="100%"
         requiredFeatures="http://www.w3.org/TR/SVG11/feature#Extensibility"
         style="overflow: visible; text-align: left;">
        <xhtml:div
           style="display: flex; align-items: unsafe center; justify-content: unsafe center; width: 58px; height: 1px; padding-top: 25px; margin-left: 91px;">
          <xhtml:div
             data-drawio-colors="color: #0066CC; "
             style="box-sizing: border-box; font-size: 0px; text-align: center;">
            <xhtml:div
               style="display: inline-block; font-size: 12px; font-family: Helvetica; color: rgb(0, 102, 204); line-height: 1.2; pointer-events: all; white-space: normal; overflow-wrap: normal;">
              <xhtml:font
                 color="#006600">Claiming</xhtml:font>
            </xhtml:div>
          </xhtml:div>
        </xhtml:div>
      </foreignObject>
      <text
         x="120"
         y="29"
         fill="#0066cc"
         font-family="Helvetica"
         font-size="12px"
         text-anchor="middle"
         id="text40">Claiming</text>
    </switch>
  </g>
  <rect
     x="10"
     y="20"
     width="60"
     height="30"
     fill="none"
     stroke="none"
     pointer-events="all"
     id="rect46" />
  <g
     transform="translate(-0.5,-0.5)"
     id="g52">
    <switch
       id="switch50">
      <foreignObject
         pointer-events="none"
         width="100%"
         height="100%"
         requiredFeatures="http://www.w3.org/TR/SVG11/feature#Extensibility"
         style="overflow: visible; text-align: left;">
        <xhtml:div
           style="display: flex; align-items: unsafe center; justify-content: unsafe center; width: 58px; height: 1px; padding-top: 35px; margin-left: 11px;">
          <xhtml:div
             data-drawio-colors="color: #994C00; "
             style="box-sizing: border-box; font-size: 0px; text-align: center;">
            <xhtml:div
               style="display: inline-block; font-size: 12px; font-family: Helvetica; color: rgb(153, 76, 0); line-height: 1.2; pointer-events: all; white-space: normal; overflow-wrap: normal;">
              <xhtml:font
                 color="#cc0066">your meetup time</xhtml:font>
            </xhtml:div>
          </xhtml:div>
        </xhtml:div>
      </foreignObject>
      <text
         x="41.267574"
         y="29.129269"
         fill="#994c00"
         font-family="Helvetica"
         font-size="12px"
         text-anchor="middle"
         id="text48"
         style="fill:#cc0066;fill-opacity:1"><tspan
           sodipodi:role="line"
           id="tspan939"
           x="41.267574"
           y="29.129269"
           style="fill:#cc0066;fill-opacity:1">your</tspan><tspan
           sodipodi:role="line"
           id="tspan941"
           x="41.267574"
           y="44.129269"
           style="fill:#cc0066;fill-opacity:1">gathering</tspan><tspan
           sodipodi:role="line"
           x="41.267574"
           y="59.129269"
           id="tspan943"
           style="fill:#cc0066;fill-opacity:1">time</tspan></text>
      <text
         xml:space="preserve"
         id="text8277"
         style="fill:#65d35f;stroke-width:0;stroke-miterlimit:10;white-space:pre;shape-inside:url(#rect8279)" />
    </switch>
  </g>
  <path
     d="m 120,40 c 25.55,0 49.56,12.2 64.62,32.83 15.06,20.64 19.36,47.22 11.57,71.55"
     fill="none"
     stroke="#666600"
     stroke-width="6"
     stroke-miterlimit="10"
     pointer-events="all"
     id="path54" />
  <path
     d="m 189,123 7,19"
     fill="none"
     stroke="#666600"
     stroke-width="6"
     stroke-miterlimit="10"
     pointer-events="stroke"
     id="path56" />
  <path
     d="m 210,130 -14,13"
     fill="none"
     stroke="#666600"
     stroke-width="6"
     stroke-miterlimit="10"
     pointer-events="stroke"
     id="path58" />
  <switch
     id="switch68">
    <g
       requiredFeatures="http://www.w3.org/TR/SVG11/feature#Extensibility"
       id="g62" />
    <a
       transform="translate(0,-5)"
       xlink:href="https://www.diagrams.net/doc/faq/svg-export-text-problems"
       target="_blank"
       id="a66">
      <text
         text-anchor="middle"
         font-size="10px"
         x="50%"
         y="100%"
         id="text64">Text is not SVG - cannot display</text>
    </a>
  </switch>
</svg>

<?xml version="1.0" encoding="UTF-8"?>
<!-- Do not edit this file with editors other than diagrams.net -->
<!DOCTYPE svg PUBLIC "-//W3C//DTD SVG 1.1//EN" "http://www.w3.org/Graphics/SVG/1.1/DTD/svg11.dtd">
<svg xmlns="http://www.w3.org/2000/svg" xmlns:xlink="http://www.w3.org/1999/xlink" version="1.1" width="241px" height="241px" viewBox="-0.5 -0.5 241 241" content="&lt;mxfile host=&quot;app.diagrams.net&quot; modified=&quot;2022-08-01T09:54:29.952Z&quot; agent=&quot;5.0 (Windows NT 10.0; Win64; x64) AppleWebKit/537.36 (KHTML, like Gecko) Chrome/103.0.5060.134 Safari/537.36&quot; etag=&quot;lku_Z3mv1jVjfG4It5zA&quot; version=&quot;20.2.2&quot; type=&quot;device&quot;&gt;&lt;diagram id=&quot;1vbO9D7_DC-vp_bcWHD5&quot; name=&quot;Page-1&quot;&gt;3Zldd6M2EIZ/jS+bIyEk0GVCsrs97Z7mbC7avcQgY51iREGO7f76jkB843rrddZubhLrldDHPDMaCRYk2Ow/FmG+/qxikS4cFO8X5HHhONTl8NcIh1pwmFsLSSHjWsKd8CL/FlZEVt3KWJSDhlqpVMt8KEYqy0SkB1pYFGo3bLZS6XDUPEzERHiJwnSq/i5jva5Vn6JO/yRksm5GxsjWbMKmsRXKdRirXU8iTwsSFErp+tdmH4jU2K6xS/3chyO17cQKkelveaA8fPmcf3qW+uvrb/qX+OenD07xU2Pm1zDd2hXb2epDY4JXUWgJFvk1XIr0WZVSS5VB1VJprTYL8tA0uE9lYiq0ykFd600KBQw/Yem56WyzT4yT3C3DUkZ3uRSmToeFvs+SajR0x2EZDvIZZ+AqBDFoIbK4q0e+72GPY8Ko5zqYO3X3tWURFFYyTQOVqqKaPIlisfSX1TiF+lP0aggjnIBtHuKwXIvYTtWaA1Yk9kcNjVt84PZCbYQuDtCkeYBZo1qX921x1/mP41pt3fOdVgytzyZt1x1W+GHJ/gfK5NYgc99FEEOEYY+6lI8h+xhT7BLf55wi5nonGMdU+LE7x9h3loSxy2B10BArdqZcW/R9rq14ca7ujXEFbh4w5ZRxjxJvEry+h6iPMKMQv8T1ySmuofBX0RxXFvliuXq3XOmtcfWQSwmnDmMORKw34noC42olWDSLMfb4EqF3i5HNYGSpNhZSsChzaGlMwf7amnPAg8lLsGOZtXQSS8z/LyKRpRaFzJKmG5hV3VPdYuIkYE09gj5AkKlMjHhZKbReE4H1RTHjThsZx2aYh91aavGSh5EZcweeBFqhtllcpdSJb1yCNB2SdmZIz4Emb8XZO8G5pnNflmC676L3ZlQKpUO7gRB01E1gsr3gRYixILgQUjwKXnZlpP5Zocu5G82F7r3WotQ3j96j10BP2BC9i6+Lnp9Ovib5mbtlZ6AeqaGtj1lO7KX+o0quFGFb/mrLni0/7m0nVeHQKzxDGoDVGkd4nMYrjBMEZqS2prm6kpaZiCf33hExWLHaFpH4F1ORebI9cnSGXKMVIgXPex1OYw6nHeFZySr0GsdhR9JA00U9fftU/2I87sgZbT5o1BEchhKhJx1V3tUu+3yHw/iszcYAnttsgjSUm5vfa66SZUYHB37lJIOds8BHURXbE/AH8Hfz4kkIvc3NezLYIv7HJ8WRI0BuDS51V8DekYi/midc8cYXFtHkxje+uDucQ7SYdzXYRa6HT7AaZZ/+xZ1Vm9Y4L5m2eZPTjIuY/etyF4bbuxriuQPmxU4ZZ9n/W88F18r3pPmU0OR7RM7L94QOT5xOY/sfle/f9IT5PtmPNuz2vvj97MmF2EOx+5ZTN+8+iJGnfwA=&lt;/diagram&gt;&lt;/mxfile&gt;"><defs/><g><path d="M 120 120 L 63.53 14.12 C 101.36 -6.06 147.09 -4.52 183.48 18.17 Z" fill="#cdeb8b" stroke="#36393d" stroke-miterlimit="10" stroke-dasharray="3 3" pointer-events="all"/><path d="M 120 120 L 119.2 40 C 154.46 39.65 185.8 62.43 196.34 96.09 C 206.88 129.74 194.15 166.33 164.98 186.16 C 135.82 205.99 97.11 204.38 69.69 182.2 C 42.27 160.02 32.61 122.51 45.9 89.84 Z" fill="#d5e8d4" stroke="#82b366" stroke-miterlimit="10" pointer-events="all"/><path d="M 120 120 L 45.94 89.74 C 49.68 80.59 55.09 72.21 61.88 65.02 Z" fill="#dae8fc" stroke="#6c8ebf" stroke-miterlimit="10" pointer-events="all"/><path d="M 120 120 L 61.84 65.07 C 76.95 49.07 97.99 40 120 40 Z" fill="#ffe6cc" stroke="#d79b00" stroke-miterlimit="10" pointer-events="all"/><rect x="90" y="140" width="60" height="30" fill="none" stroke="none" pointer-events="all"/><g transform="translate(-0.5 -0.5)"><switch><foreignObject pointer-events="none" width="100%" height="100%" requiredFeatures="http://www.w3.org/TR/SVG11/feature#Extensibility" style="overflow: visible; text-align: left;"><div xmlns="http://www.w3.org/1999/xhtml" style="display: flex; align-items: unsafe center; justify-content: unsafe center; width: 58px; height: 1px; padding-top: 155px; margin-left: 91px;"><div data-drawio-colors="color: rgb(0, 0, 0); " style="box-sizing: border-box; font-size: 0px; text-align: center;"><div style="display: inline-block; font-size: 12px; font-family: Helvetica; color: rgb(0, 0, 0); line-height: 1.2; pointer-events: all; white-space: normal; overflow-wrap: normal;"><font color="#336600">Registering</font></div></div></div></foreignObject><text x="120" y="159" fill="rgb(0, 0, 0)" font-family="Helvetica" font-size="12px" text-anchor="middle">Registering</text></switch></g><rect x="50" y="80" width="60" height="30" fill="none" stroke="none" transform="rotate(30,80,95)" pointer-events="all"/><g transform="translate(-0.5 -0.5)rotate(30 80 94.99999999999994)"><switch><foreignObject pointer-events="none" width="100%" height="100%" requiredFeatures="http://www.w3.org/TR/SVG11/feature#Extensibility" style="overflow: visible; text-align: left;"><div xmlns="http://www.w3.org/1999/xhtml" style="display: flex; align-items: unsafe center; justify-content: unsafe center; width: 58px; height: 1px; padding-top: 95px; margin-left: 51px;"><div data-drawio-colors="color: #0066CC; " style="box-sizing: border-box; font-size: 0px; text-align: center;"><div style="display: inline-block; font-size: 12px; font-family: Helvetica; color: rgb(0, 102, 204); line-height: 1.2; pointer-events: all; white-space: normal; overflow-wrap: normal;"><font>Assigning</font></div></div></div></foreignObject><text x="80" y="99" fill="#0066CC" font-family="Helvetica" font-size="12px" text-anchor="middle">Assigning</text></switch></g><rect x="76" y="61" width="60" height="30" fill="none" stroke="none" transform="rotate(75,106,76)" pointer-events="all"/><g transform="translate(-0.5 -0.5)rotate(75 106 76)"><switch><foreignObject pointer-events="none" width="100%" height="100%" requiredFeatures="http://www.w3.org/TR/SVG11/feature#Extensibility" style="overflow: visible; text-align: left;"><div xmlns="http://www.w3.org/1999/xhtml" style="display: flex; align-items: unsafe center; justify-content: unsafe center; width: 58px; height: 1px; padding-top: 76px; margin-left: 77px;"><div data-drawio-colors="color: #0066CC; " style="box-sizing: border-box; font-size: 0px; text-align: center;"><div style="display: inline-block; font-size: 12px; font-family: Helvetica; color: rgb(0, 102, 204); line-height: 1.2; pointer-events: all; white-space: normal; overflow-wrap: normal;"><font color="#994c00">Attesting</font></div></div></div></foreignObject><text x="106" y="80" fill="#0066CC" font-family="Helvetica" font-size="12px" text-anchor="middle">Attesting</text></switch></g><path d="M 120.16 121.12 L 60 20" fill="none" stroke="#cc0066" stroke-width="3" stroke-miterlimit="10" pointer-events="stroke"/><rect x="90" y="10" width="60" height="30" fill="none" stroke="none" pointer-events="all"/><g transform="translate(-0.5 -0.5)"><switch><foreignObject pointer-events="none" width="100%" height="100%" requiredFeatures="http://www.w3.org/TR/SVG11/feature#Extensibility" style="overflow: visible; text-align: left;"><div xmlns="http://www.w3.org/1999/xhtml" style="display: flex; align-items: unsafe center; justify-content: unsafe center; width: 58px; height: 1px; padding-top: 25px; margin-left: 91px;"><div data-drawio-colors="color: #0066CC; " style="box-sizing: border-box; font-size: 0px; text-align: center;"><div style="display: inline-block; font-size: 12px; font-family: Helvetica; color: rgb(0, 102, 204); line-height: 1.2; pointer-events: all; white-space: normal; overflow-wrap: normal;"><font color="#006600">Claiming</font></div></div></div></foreignObject><text x="120" y="29" fill="#0066CC" font-family="Helvetica" font-size="12px" text-anchor="middle">Claiming</text></switch></g><rect x="10" y="20" width="60" height="30" fill="none" stroke="none" pointer-events="all"/><g transform="translate(-0.5 -0.5)"><switch><foreignObject pointer-events="none" width="100%" height="100%" requiredFeatures="http://www.w3.org/TR/SVG11/feature#Extensibility" style="overflow: visible; text-align: left;"><div xmlns="http://www.w3.org/1999/xhtml" style="display: flex; align-items: unsafe center; justify-content: unsafe center; width: 58px; height: 1px; padding-top: 35px; margin-left: 11px;"><div data-drawio-colors="color: #994C00; " style="box-sizing: border-box; font-size: 0px; text-align: center;"><div style="display: inline-block; font-size: 12px; font-family: Helvetica; color: rgb(153, 76, 0); line-height: 1.2; pointer-events: all; white-space: normal; overflow-wrap: normal;"><font color="#cc0066">your meetup time</font></div></div></div></foreignObject><text x="40" y="39" fill="#994C00" font-family="Helvetica" font-size="12px" text-anchor="middle">your meetu...</text></switch></g><path d="M 120 40 C 145.55 40 169.56 52.2 184.62 72.83 C 199.68 93.47 203.98 120.05 196.19 144.38" fill="none" stroke="#666600" stroke-width="6" stroke-miterlimit="10" pointer-events="all"/><path d="M 189 123 L 196 142" fill="none" stroke="#666600" stroke-width="6" stroke-miterlimit="10" pointer-events="stroke"/><path d="M 210 130 L 196 143" fill="none" stroke="#666600" stroke-width="6" stroke-miterlimit="10" pointer-events="stroke"/></g><switch><g requiredFeatures="http://www.w3.org/TR/SVG11/feature#Extensibility"/><a transform="translate(0,-5)" xlink:href="https://www.diagrams.net/doc/faq/svg-export-text-problems" target="_blank"><text text-anchor="middle" font-size="10px" x="50%" y="100%">Text is not SVG - cannot display</text></a></switch></svg>
